X:180
T:Shrewsbury Lasses THO4.180, The
M:2/4
L:1/8
Z:vmp. Peter Dunk 2010/11.from a transcription by Fynn Titford-Mock 2007
B:Thompson's Compleat Collection of 200 Favourite Country Dances Volume IV.
Q:1/4=140
K:D
(3A/B/c/|d A2 (G|F) D2 F|EGFE|FDFA|d f2 (d|c) e2 A| BdB^G|A2-A:|
|:(3A/B/c/|d B2 (G|G) E2 (a|a) f2 (d|d) B2 (b|b) g2 (e|\
e) c2 (A|G) B2 G|(3FGA FD|G B2 G|FA df|{f}e2 dc|d2-d:|
